static/cards/FrenchDeck/cyberwave/card_spades_06.svg

<svg xmlns="http://www.w3.org/2000/svg" width="822" height="1122" fill="none" viewBox="0 0 822 1122"><rect width="822" height="1122" fill="#1a0033" rx="20"/><g fill="#fff066" clip-path="url(#a)"><path d="M120.57 160.92q-14.976 0-24.192-9.216-9.088-9.216-9.088-29.824 0-19.456 5.248-30.976 5.248-11.648 13.312-16.256t17.408-4.608q7.168 0 12.928 1.536 5.888 1.536 9.856 4.224.768.512.896.896t-.256 1.152l-1.664 2.816q-.384.768-.896.768-.256 0-.896-.384-8.064-5.12-20.096-5.12t-19.456 8.96q-7.296 8.832-9.088 25.344 4.352-6.144 11.264-9.088t16.64-2.944q9.344 0 16.64 3.456t11.392 10.24q4.224 6.656 4.224 16 0 16.256-9.088 24.704-8.96 8.32-25.088 8.32m0-5.888q27.52 0 27.52-27.136 0-11.904-7.04-17.792-6.912-5.888-19.712-5.888-6.016 0-12.416 2.688-6.272 2.56-10.496 7.68t-4.224 12.16q0 14.208 7.424 21.248t18.944 7.04M121.202 281.503c10.18 10.18 26.685 10.18 36.865 0s10.18-26.685 0-36.865l-33.179-33.179a5.213 5.213 0 0 0-7.373 0l-33.179 33.179.004.003c-9.814 10.207-9.692 26.436.365 36.493s26.287 10.179 36.493.365z"/><rect width="5" height="33" x="118.5" y="266" rx="2.5"/><path d="M693.43 957.08q14.976 0 24.192 9.216 9.088 9.216 9.088 29.824c0 12.97-1.749 23.3-5.248 30.98-3.499 7.76-7.936 13.18-13.312 16.25s-11.179 4.61-17.408 4.61c-4.779 0-9.088-.51-12.928-1.54-3.925-1.02-7.211-2.43-9.856-4.22q-.768-.51-.896-.9c-.085-.25 0-.64.256-1.15l1.664-2.81c.256-.52.555-.77.896-.77.171 0 .469.13.896.38 5.376 3.42 12.075 5.12 20.096 5.12s14.507-2.98 19.456-8.96c4.864-5.89 7.893-14.33 9.088-25.34q-4.352 6.135-11.264 9.09-6.912 2.94-16.64 2.94c-6.229 0-11.776-1.15-16.64-3.46-4.864-2.3-8.661-5.71-11.392-10.24-2.816-4.43-4.224-9.767-4.224-15.996q0-16.256 9.088-24.704 8.96-8.32 25.088-8.32m0 5.888q-27.52 0-27.52 27.136 0 11.902 7.04 17.796 6.912 5.88 19.712 5.88c4.011 0 8.149-.89 12.416-2.68q6.272-2.565 10.496-7.68c2.816-3.42 4.224-7.471 4.224-12.164q0-14.208-7.424-21.248t-18.944-7.04M692.798 836.497c-10.18-10.18-26.685-10.18-36.865 0s-10.18 26.685 0 36.865l33.179 33.179a5.213 5.213 0 0 0 7.373 0l33.179-33.179-.004-.003c9.814-10.207 9.692-26.436-.365-36.493s-26.287-10.179-36.493-.365z"/><rect width="5" height="33" x="695.5" y="852" rx="2.5" transform="rotate(-180 695.5 852)"/></g><path stroke="#fff066" stroke-width="8" d="M445.739 658.674c-8.618 8.618-22.59 8.619-31.209.001l-2.777-2.777-2.827 2.718c-8.639 8.306-22.379 8.203-30.892-.31-8.514-8.514-8.617-22.254-.31-30.893l.137-.143 32.983-32.982a1.213 1.213 0 0 1 1.716-.001l33.179 33.179c8.618 8.618 8.618 22.59 0 31.208Z"/><rect width="5" height="33" x="409" y="646" fill="#fff066" rx="2.5"/><path stroke="#fff066" stroke-width="8" d="M613.739 658.674c-8.618 8.618-22.59 8.619-31.209.001l-2.777-2.777-2.827 2.718c-8.639 8.306-22.379 8.203-30.892-.31-8.514-8.514-8.617-22.254-.31-30.893l.137-.143 32.983-32.982a1.213 1.213 0 0 1 1.716-.001l33.179 33.179c8.618 8.618 8.618 22.59 0 31.208Z"/><rect width="5" height="33" x="577" y="646" fill="#fff066" rx="2.5"/><path stroke="#fff066" stroke-width="8" d="M277.739 658.674c-8.618 8.618-22.59 8.619-31.209.001l-2.777-2.777-2.827 2.718c-8.639 8.306-22.379 8.203-30.892-.31-8.514-8.514-8.617-22.254-.31-30.893l.137-.143 32.983-32.982a1.213 1.213 0 0 1 1.716-.001l33.179 33.179c8.618 8.618 8.618 22.59 0 31.208Z"/><rect width="5" height="33" x="241" y="646" fill="#fff066" rx="2.5"/><path stroke="#fff066" stroke-width="8" d="M613.739 496.674c-8.618 8.618-22.59 8.619-31.209.001l-2.777-2.777-2.827 2.718c-8.639 8.306-22.379 8.203-30.892-.31-8.514-8.514-8.617-22.254-.31-30.893l.137-.143 32.983-32.982a1.213 1.213 0 0 1 1.716-.001l33.179 33.179c8.618 8.618 8.618 22.59 0 31.208Z"/><rect width="5" height="33" x="577" y="484" fill="#fff066" rx="2.5"/><path stroke="#fff066" stroke-width="8" d="M277.739 496.674c-8.618 8.618-22.59 8.619-31.209.001l-2.777-2.777-2.827 2.718c-8.639 8.306-22.379 8.203-30.892-.31-8.514-8.514-8.617-22.254-.31-30.893l.137-.143 32.983-32.982a1.213 1.213 0 0 1 1.716-.001l33.179 33.179c8.618 8.618 8.618 22.59 0 31.208Z"/><rect width="5" height="33" x="241" y="484" fill="#fff066" rx="2.5"/><path stroke="#fff066" stroke-width="8" d="M445.739 496.674c-8.618 8.618-22.59 8.619-31.209.001l-2.777-2.777-2.827 2.718c-8.639 8.306-22.379 8.203-30.892-.31-8.514-8.514-8.617-22.254-.31-30.893l.137-.143 32.983-32.982a1.213 1.213 0 0 1 1.716-.001l33.179 33.179c8.618 8.618 8.618 22.59 0 31.208Z"/><rect width="5" height="33" x="409" y="484" fill="#fff066" rx="2.5"/><defs><clipPath id="a"><path fill="#fff" d="M46 48h722v1022H46z"/></clipPath></defs></svg>

<svg width="822" height="1122" viewBox="0 0 822 1122" fill="none" xmlns="http://www.w3.org/2000/svg">
<rect width="822" height="1122" rx="20" fill="#1A0033"/>
<g clip-path="url(#clip0_31_1369)">
<path d="M120.57 160.92C110.586 160.92 102.522 157.848 96.378 151.704C90.3193 145.56 87.29 135.619 87.29 121.88C87.29 108.909 89.0393 98.584 92.538 90.904C96.0367 83.1387 100.474 77.72 105.85 74.648C111.226 71.576 117.029 70.04 123.258 70.04C128.037 70.04 132.346 70.552 136.186 71.576C140.111 72.6 143.397 74.008 146.042 75.8C146.554 76.1413 146.853 76.44 146.938 76.696C147.023 76.952 146.938 77.336 146.682 77.848L145.018 80.664C144.762 81.176 144.463 81.432 144.122 81.432C143.951 81.432 143.653 81.304 143.226 81.048C137.85 77.6347 131.151 75.928 123.13 75.928C115.109 75.928 108.623 78.9147 103.674 84.888C98.81 90.776 95.7807 99.224 94.586 110.232C97.4873 106.136 101.242 103.107 105.85 101.144C110.458 99.1813 116.005 98.2 122.49 98.2C128.719 98.2 134.266 99.352 139.13 101.656C143.994 103.96 147.791 107.373 150.522 111.896C153.338 116.333 154.746 121.667 154.746 127.896C154.746 138.733 151.717 146.968 145.658 152.6C139.685 158.147 131.322 160.92 120.57 160.92ZM120.57 155.032C138.917 155.032 148.09 145.987 148.09 127.896C148.09 119.96 145.743 114.029 141.05 110.104C136.442 106.179 129.871 104.216 121.338 104.216C117.327 104.216 113.189 105.112 108.922 106.904C104.741 108.611 101.242 111.171 98.426 114.584C95.61 117.997 94.202 122.051 94.202 126.744C94.202 136.216 96.6767 143.299 101.626 147.992C106.575 152.685 112.89 155.032 120.57 155.032Z" fill="#FFF066"/>
<path d="M121.202 281.503C131.382 291.683 147.887 291.683 158.067 281.503C168.247 271.323 168.247 254.818 158.067 244.638L124.888 211.459C122.852 209.423 119.551 209.423 117.515 211.459L84.3364 244.638L84.34 244.641C74.5265 254.848 74.6481 271.077 84.7051 281.134C94.762 291.191 110.992 291.313 121.198 281.499L121.202 281.503Z" fill="#FFF066"/>
<rect x="118.5" y="266" width="5" height="33" rx="2.5" fill="#FFF066"/>
<path d="M693.43 957.08C703.414 957.08 711.478 960.152 717.622 966.296C723.681 972.44 726.71 982.381 726.71 996.12C726.71 1009.09 724.961 1019.42 721.462 1027.1C717.963 1034.86 713.526 1040.28 708.15 1043.35C702.774 1046.42 696.971 1047.96 690.742 1047.96C685.963 1047.96 681.654 1047.45 677.814 1046.42C673.889 1045.4 670.603 1043.99 667.958 1042.2C667.446 1041.86 667.147 1041.56 667.062 1041.3C666.977 1041.05 667.062 1040.66 667.318 1040.15L668.982 1037.34C669.238 1036.82 669.537 1036.57 669.878 1036.57C670.049 1036.57 670.347 1036.7 670.774 1036.95C676.15 1040.37 682.849 1042.07 690.87 1042.07C698.891 1042.07 705.377 1039.09 710.326 1033.11C715.19 1027.22 718.219 1018.78 719.414 1007.77C716.513 1011.86 712.758 1014.89 708.15 1016.86C703.542 1018.82 697.995 1019.8 691.51 1019.8C685.281 1019.8 679.734 1018.65 674.87 1016.34C670.006 1014.04 666.209 1010.63 663.478 1006.1C660.662 1001.67 659.254 996.333 659.254 990.104C659.254 979.267 662.283 971.032 668.342 965.4C674.315 959.853 682.678 957.08 693.43 957.08ZM693.43 962.968C675.083 962.968 665.91 972.013 665.91 990.104C665.91 998.04 668.257 1003.97 672.95 1007.9C677.558 1011.82 684.129 1013.78 692.662 1013.78C696.673 1013.78 700.811 1012.89 705.078 1011.1C709.259 1009.39 712.758 1006.83 715.574 1003.42C718.39 1000 719.798 995.949 719.798 991.256C719.798 981.784 717.323 974.701 712.374 970.008C707.425 965.315 701.11 962.968 693.43 962.968Z" fill="#FFF066"/>
<path d="M692.798 836.497C682.618 826.317 666.113 826.317 655.933 836.497C645.753 846.677 645.753 863.182 655.933 873.362L689.112 906.541C691.148 908.577 694.449 908.577 696.485 906.541L729.664 873.362L729.66 873.359C739.474 863.152 739.352 846.923 729.295 836.866C719.238 826.809 703.008 826.687 692.802 836.501L692.798 836.497Z" fill="#FFF066"/>
<rect x="695.5" y="852" width="5" height="33" rx="2.5" transform="rotate(-180 695.5 852)" fill="#FFF066"/>
</g>
<path d="M445.739 658.674C437.121 667.292 423.149 667.293 414.53 658.675L411.753 655.898L408.926 658.616C400.287 666.922 386.547 666.819 378.034 658.306C369.52 649.792 369.417 636.052 377.724 627.413L377.861 627.27L410.844 594.288C411.318 593.814 412.086 593.813 412.56 594.287L445.739 627.466C454.357 636.084 454.357 650.056 445.739 658.674Z" stroke="#FFF066" stroke-width="8"/>
<rect x="409" y="646" width="5" height="33" rx="2.5" fill="#FFF066"/>
<path d="M613.739 658.674C605.121 667.292 591.149 667.293 582.53 658.675L579.753 655.898L576.926 658.616C568.287 666.922 554.547 666.819 546.034 658.306C537.52 649.792 537.417 636.052 545.724 627.413L545.861 627.27L578.844 594.288C579.318 593.814 580.086 593.813 580.56 594.287L613.739 627.466C622.357 636.084 622.357 650.056 613.739 658.674Z" stroke="#FFF066" stroke-width="8"/>
<rect x="577" y="646" width="5" height="33" rx="2.5" fill="#FFF066"/>
<path d="M277.739 658.674C269.121 667.292 255.149 667.293 246.53 658.675L243.753 655.898L240.926 658.616C232.287 666.922 218.547 666.819 210.034 658.306C201.52 649.792 201.417 636.052 209.724 627.413L209.861 627.27L242.844 594.288C243.318 593.814 244.086 593.813 244.56 594.287L277.739 627.466C286.357 636.084 286.357 650.056 277.739 658.674Z" stroke="#FFF066" stroke-width="8"/>
<rect x="241" y="646" width="5" height="33" rx="2.5" fill="#FFF066"/>
<path d="M613.739 496.674C605.121 505.292 591.149 505.293 582.53 496.675L579.753 493.898L576.926 496.616C568.287 504.922 554.547 504.819 546.034 496.306C537.52 487.792 537.417 474.052 545.724 465.413L545.861 465.27L578.844 432.288C579.318 431.814 580.086 431.813 580.56 432.287L613.739 465.466C622.357 474.084 622.357 488.056 613.739 496.674Z" stroke="#FFF066" stroke-width="8"/>
<rect x="577" y="484" width="5" height="33" rx="2.5" fill="#FFF066"/>
<path d="M277.739 496.674C269.121 505.292 255.149 505.293 246.53 496.675L243.753 493.898L240.926 496.616C232.287 504.922 218.547 504.819 210.034 496.306C201.52 487.792 201.417 474.052 209.724 465.413L209.861 465.27L242.844 432.288C243.318 431.814 244.086 431.813 244.56 432.287L277.739 465.466C286.357 474.084 286.357 488.056 277.739 496.674Z" stroke="#FFF066" stroke-width="8"/>
<rect x="241" y="484" width="5" height="33" rx="2.5" fill="#FFF066"/>
<path d="M445.739 496.674C437.121 505.292 423.149 505.293 414.53 496.675L411.753 493.898L408.926 496.616C400.287 504.922 386.547 504.819 378.034 496.306C369.52 487.792 369.417 474.052 377.724 465.413L377.861 465.27L410.844 432.288C411.318 431.814 412.086 431.813 412.56 432.287L445.739 465.466C454.357 474.084 454.357 488.056 445.739 496.674Z" stroke="#FFF066" stroke-width="8"/>
<rect x="409" y="484" width="5" height="33" rx="2.5" fill="#FFF066"/>
<defs>
<clipPath id="clip0_31_1369">
<rect width="722" height="1022" fill="white" transform="translate(46 48)"/>
</clipPath>
</defs>
</svg>
